X:4
T:C'est la Vie (fourth)
C:Lincoln Hilton
R:Slow Air
M:2/4
L:1/4
K:D
Z:Transcribed by Stephen Beitzel
[| {g}A {Gdc}d/{gf}g/ | {g}f a/{ef}e/- | e- e- | e {g}d/e/ |
{gfg}f {g}B/{Gdc}d/- | d/e/ {g}A | {GAG}A- A- | A {g}A/4B/4d/ |
{gf}g- g/{a}f/- | f-f | {g}d-d- | d-d |
{g}B- B/{Gdc}d/- | d-d | {g}d-d- | d-d |]
[| {g}B-B | {g}A-A | {GAG}A-A- | A-A |
{g}B-B | {g}A-A | {g}d-d- | d-d |
{g}B-B | {g}d-d | {ge}f-f | {g}B-B |
{g}B-B | {g}B-B | {g}B A | {g}d-d |
{g}B-B | {g}A-A | {g}A-A- | A-A |
{Gdc}d-d- | d-d |]
